X:1
L:1/8
Q:1/4=120
M:2/2
K:F
""^Moderately Quick"" f2- | fgfd cAdc | AF G2 [FA]GA=B | [Ec][E=B] [Ec]2 [Dc][Dc] [_Ec]2 | 
 [=Ec]6 ([_E-=B] |: [Ec])[Ec] [Dc]2 [Ec]2 [Dc]2 | [Ec][DA][_E=B][=Ec]- [Ec]2 [FA]2- | 
 [FA]2 ([GA][^GA] [AA]2) ([=GA][^GA] | [AA]2) ([GA][^GA] [AA]2) dA | =BdBA G2 dA | =BdAB G2 A=B |1 
 cdcA GcAG | EGED C2 ([_E-=B][Ec]) :|2 cA d2 AF G2 | F2 [CF]2 [CE]2 [C_E]2 || D(_E=E)(F ^F) d3- | 
 dAcA =Bd A2 | G,_A,=A,B, =B, G2 D | F2 D(E E)G D2 =B, | CCD_E =E c2 A | cAdc AF G2 |1 
 .F2 dc- cA G2 | F2 [CF]2 [CE]2 [C_E]2 :|2 .F2 dc- c2 A2 | F6 || (DE | ^F)D([EA]F) DE([FA]D | 
 E)F [DA]E F2 (G,A, | =B,)G,A,B, G,A,B,G, | A,=B,G,A, B,2 G,2 | CD_EE (=E c2) (A | cA)d(c A)F G2 | 
 F2 dc- (cA) G2 |1 F2 [CF]2 [CE]2 [C_E]2 :|2 F6 ||
